modules/feathericon/icons/truck.svg

<?xml version="1.0" encoding="UTF-8"?>
<svg width="10px" height="8px" viewBox="0 0 10 8" version="1.1" xmlns="http://www.w3.org/2000/svg" xmlns:xlink="http://www.w3.org/1999/xlink">
    <!-- Generator: sketchtool 48.1 (47250) - http://www.bohemiancoding.com/sketch -->
    <title>truck</title>
    <desc>Created with sketchtool.</desc>
    <defs></defs>
    <g id="e-commerce" stroke="none" stroke-width="1" fill="none" fill-rule="evenodd">
        <g id="truck" fill="#000000">
            <path d="M8.91464715,7 C8.70872894,7.58259619 8.15310941,8 7.5,8 C6.84689059,8 6.29127106,7.58259619 6.08535285,7 L5.5,7 L3.91464715,7 C3.70872894,7.58259619 3.15310941,8 2.5,8 C1.84689059,8 1.29127106,7.58259619 1.08535285,7 L0.5,7 C0.223857625,7 3.38176876e-17,6.77614237 0,6.5 L0,0.5 C-1.4483999e-16,0.223857625 0.223857625,5.07265313e-17 0.5,0 L5.5,0 C5.77614237,4.39800865e-16 6,0.223857625 6,0.5 L6,1 L7.79289322,1 C7.92550146,1 8.05267842,1.05267842 8.14644661,1.14644661 L9.85355339,2.85355339 C9.94732158,2.94732158 10,3.07449854 10,3.20710678 L10,6.5 C10,6.77614237 9.77614237,7 9.5,7 L8.91464715,7 Z M2.5,7.5 C3.05228475,7.5 3.5,7.05228475 3.5,6.5 C3.5,5.94771525 3.05228475,5.5 2.5,5.5 C1.94771525,5.5 1.5,5.94771525 1.5,6.5 C1.5,7.05228475 1.94771525,7.5 2.5,7.5 Z M7.5,7.5 C8.05228475,7.5 8.5,7.05228475 8.5,6.5 C8.5,5.94771525 8.05228475,5.5 7.5,5.5 C6.94771525,5.5 6.5,5.94771525 6.5,6.5 C6.5,7.05228475 6.94771525,7.5 7.5,7.5 Z M7,2 L7,4 L9,4 L9,3 L8,2 L7,2 Z" id="Shape"></path>
        </g>
    </g>
</svg>

<svg width="10" height="8" viewBox="0 0 10 8" xmlns="http://www.w3.org/2000/svg"><path d="M8.915 7a1.5 1.5 0 0 1-2.83 0h-2.17a1.5 1.5 0 0 1-2.83 0H.5a.5.5 0 0 1-.5-.5v-6A.5.5 0 0 1 .5 0h5a.5.5 0 0 1 .5.5V1h1.793a.5.5 0 0 1 .353.146l1.708 1.708a.5.5 0 0 1 .146.353V6.5a.5.5 0 0 1-.5.5h-.585zM2.5 7.5a1 1 0 1 0 0-2 1 1 0 0 0 0 2zm5 0a1 1 0 1 0 0-2 1 1 0 0 0 0 2zM7 2v2h2V3L8 2H7z" fill="#000" fill-rule="evenodd"/></svg>
